X: 5
T: The Moving Bogs
R: reel
M: 4/4
L: 1/8
K: Dmaj
D2FA dDFA|dgfd ecAc|dAAd BGED|CEAF GFEF|
D2FA dDFA|dgfd ecAc|dAAd BGED|1 CEAG FDDC:|2 CEAG FDFA||
|:defd fafd|gabg ecAc|d2fd fafd|efge fdec|
defd fafd|gabg ecAc|dAAd BGED|1 CEAG FDFA:|2 CEAF GFEF||


Tune 716	Setting 28042

